X: 7
T: Sean Tiobrad Arann
R: jig
M: 6/8
L: 1/8
K: Gmaj
d|:cAF G3|ABA G2d|cAG GFG|ADE FGd|
cAF G3|ABA GBd|fdd edd|fdd c2A:||
F|:GB/c/d g2f|gaf g2 f|d2g gfg|a2 g fga|
bag agf|gfe f2e|1 dcA d2 e|fed c2A:|2 dcA a2 g|fed c2A||


Tune 2599	Setting 15854

